src/images/icons/facebook.svg

<svg fill="none" height="26" viewBox="0 0 26 26" width="26" xmlns="http://www.w3.org/2000/svg"><path d="m23.4053 0h-20.74409c-.7058 0-1.38269.280376-1.88176.77945-.499074.49907-.77945 1.17596-.77945 1.88176v20.74409c.0173604.6942.305382 1.3541.802586 1.8389s1.164204.756 1.858624.7558h20.74409c.6829-.0169 1.3331-.2957 1.8161-.7786.4829-.483.7617-1.1332.7786-1.8161v-20.74409c.0002-.69442-.271-1.36142-.7558-1.858624s-1.1447-.7852256-1.8389-.802586zm-1.3306 2.66121v3.83214h-2.6612c-.1783-.01401-.3575.01079-.5253.0727-.1678.06192-.3202.15947-.4467.28594-.1264.12647-.224.27885-.2859.44664-.0619.1678-.0867.34702-.0727.52532v2.66125h3.8987v3.8986h-3.7789v9.1014h-3.8987v-9.1812h-2.6612v-3.8987h2.6612v-3.25996c.0309-1.191.5223-2.32364 1.3709-3.15986.8487-.83622 1.9884-1.3109 3.1798-1.32427z" fill="#fff"/></svg>

<svg width="26" height="26" viewBox="0 0 26 26" fill="none" xmlns="http://www.w3.org/2000/svg">
<path d="M23.4053 0H2.66121C1.95541 0 1.27852 0.280376 0.77945 0.77945C0.280376 1.27852 0 1.95541 0 2.66121L0 23.4053C0.0173604 24.0995 0.305382 24.7594 0.802586 25.2442C1.29979 25.729 1.96679 26.0002 2.66121 26H23.4053C24.0882 25.9831 24.7384 25.7043 25.2214 25.2214C25.7043 24.7384 25.9831 24.0882 26 23.4053V2.66121C26.0002 1.96679 25.729 1.29979 25.2442 0.802586C24.7594 0.305382 24.0995 0.0173604 23.4053 0V0ZM22.0747 2.66121V6.49335H19.4135C19.2352 6.47934 19.056 6.50414 18.8882 6.56605C18.7204 6.62797 18.568 6.72552 18.4415 6.85199C18.3151 6.97846 18.2175 7.13084 18.1556 7.29863C18.0937 7.46643 18.0689 7.64565 18.0829 7.82395V10.4852H21.9816V14.3838H18.2027V23.4852H14.304V14.304H11.6428V10.4053H14.304V7.14534C14.3349 5.95434 14.8263 4.8217 15.6749 3.98548C16.5236 3.14926 17.6633 2.67458 18.8547 2.66121H22.0747Z" fill="white"/>
</svg>
